**kern	**kern	**dynam
*part1	*part1	*part1
*staff2	*staff1	*
*I"Piano	*	*
*clefF4	*clefG2	*
*k[b-e-]	*k[b-e-]	*
=1	=1	=1
8AL	(8ccL	.
8B-	8ddJ)	.
8c	(8ee-XL	.
8dJ	8ffJ)	.
=	=	=
4e-	8ggL	.
.	8ee-J	.
4en	(8ccL	.
.	8b-J)	.
=	=	=
4f	(8b-L	.
.	8aJ)	.
4e-X	8g	.
.	8f	.
=	=	=
4c	4.f 4.g	.
4A	.	.
.	8e-	.
=	=	=
4B-	(8dL	.
.	8fJ)	.
4D	(8b-L	.
.	8ddJ)	.
=	=	=
4E-	(8fL 8dd	.
.	8e-J) 8cc	.
4F	(8dL 8b-	.
.	8cJ) 8a	.
=	=	=
4B-	4d 4b-	.
4r	8r	.
.	8cc	.
=	=	=
*	*^	*
4F	4ff	8aL	f
.	.	8ccJ	.
4C	4ee-X	8b-L	.
.	.	8ccJ	.
*	*v	*v	*
=	=	=
*-	*-	*-
!!!system-decoration: {(s1,s2)}
